!!!!SEGMENT: pl-kk--kk-i-88--002-006_golabek-jakub--missa-2-benedictus.krn
!!!cenid: 17xx:2580
!!!COM: Gołąbek, Jakub
!!!COM-rismID: pe30008748
!!!CDT: 1739-1789/03/30
!!!CNT: Polish
!!!OPR: Missa 2
!!!OTL: Benedictus
!!!OMV: 006
!!!PDT:
!!!AGN: Sacred; Mass
!!!YEC: Copyright 2022 Narodowy Instytut Fryderyka Chopina (https://polishscores.org)
!!!YEM: License CC-BY-4.0 (https://creativecommons.org/licenses/by/4.0)
!!!SMS-siglum: PL-Kk
!!!SMS-shelfmark: Kk.I.88
!!!SMS-variant:
!!!SMS-altvar:
!!!SMS-shelfwork: 002-006 M
!!!NIFC-rismSourceID: 1001164072
!!!NIFC-rismChildID: 1001164081
!!!NIFC-islandoraID:
!!!URL-pdf-islandora: https://repozytorium.nifc.pl/islandora/object/pl-kk%3A3086/datastream/PDF/view
!!!URL-scan: https://polish.musicsources.pl/pl/lokalizacje/galeria/rekopisy/6148-missa/4 @EN{Scan on Polish Music Sources Website} @PL{Skany w portalu Dziedzictwo Muzyki Polskiej w otwartym dostępie}
!!!IIIF:
!!!ONB-nifc: UWAGA: C - f. 4r-5v; A - f. 12r-13v; T - f. 20r-21v; B - f. 28r-29v; B rip - f. 34r-35v. Proszę uwzględniać B rip. Części Mszy: 1. Kyrie, 2. Christe, 3. Et in terra, 4. Sanctus, 5. Osanna, 6. Benedictus, 7. Agnus Dei.
!!!AIN: 1 alto 1 bass 1 soprn 1 tenor
!!!key: B-
**kern	**text	**kern	**text	**kern	**text	**kern	**text	**kern	**text
*part5	*part5	*part4	*part4	*part3	*part3	*part2	*part2	*part1	*part1
*staff5	*staff5	*staff4	*staff4	*staff3	*staff3	*staff2	*staff2	*staff1	*staff1
*IGripn	*	*	*	*	*	*	*	*	*
*ICvox	*	*ICvox	*	*ICvox	*	*ICvox	*	*ICvox	*
*	*	*Ibass	*	*Itenor	*	*Ialto	*	*Isoprn	*
*I"Baſso E ripieno	*	*I"Baſso	*	*I"Tenore	*	*I"Alto	*	*I"Canto	*
*I'B rip	*	*I'B	*	*I'T	*	*I'A	*	*I'S	*
*clefF4	*	*clefF4	*	*clefC4	*	*clefC3	*	*clefC1	*
*k[e-b-]	*	*k[e-b-]	*	*k[b-e-]	*	*k[e-b-]	*	*k[b-e-]	*
*B-:	*	*B-:	*	*B-:	*	*B-:	*	*B-:	*
*M3/2	*	*M3/2	*	*M3/2	*	*M3/2	*	*M3/2	*
=1	=1	=1	=1	=1	=1	=1	=1	=1	=1
*2\right	*	*2\right	*	*2\right	*	*2\right	*	*2\right	*
2BB-/	Be-	2BB-/	Be-	2d\	Be-	4B-/	Be-	4f\	Be-
.	.	.	.	.	.	4d/	.	4b-\	.
2D/	.	2D/	.	2B-\	.	2f\	.	2dd\	.
2F\	-ne-	2F\	-ne-	2A\	-ne-	2e-X\	-ne-	2cc\	-ne-
=2	=2	=2	=2	=2	=2	=2	=2	=2	=2
2A\	-dic-	2A\	-dic-	2F/	-dic-	2e-\	-dic-	2cc\	-di-
2B-\	-tus	2B-\	-tus	2F/	-tus	2d\	-tus	2b-\	-ctus
2D\	qui	2D\	qui	2B-\	qui	2f\	qui	2dd\	qui
=3	=3	=3	=3	=3	=3	=3	=3	=3	=3
2E-\	ve-	2E-\	ve-	2G/	ve-	4e-\	ve-	4cc\	ve-
.	.	.	.	.	.	8f\L	.	8dd\L	.
.	.	.	.	.	.	8e-\J	.	8cc\J	.
1F	.	1F	.	1F	.	2d\	.	2b-\	.
.	.	.	.	.	.	2c\	.	2a\	.
=4	=4	=4	=4	=4	=4	=4	=4	=4	=4
2BB-/	-nit	2BB-/	-nit,	2F/	-nit	2d\	-nit	2b-\	-nit
2r	.	2r	.	2r	.	2r	.	2r	.
2BB-/	qui	2BB-/	qui	2r	.	2d\	qui	2b-\	qui
=5	=5	=5	=5	=5	=5	=5	=5	=5	=5
2F\	ve-	2F\	ve-	1.r	.	2d\	ve-	2b-\	ve-
2F\	-nit	2F\	-nit	.	.	2c\	-nit	2a\	-nit
2F\	qui	2F\	qui	.	.	2e-\	qui	2cc\	qui
!	!	!	!	!	!	!LO:LB:g=original	!	!	!
=6	=6	=6	=6	=6	=6	=6	=6	=6	=6
2B-\	ve-	2B-\	ve-	2r	.	2e-\	ve-	2cc\	ve-
2BB-/	-nit	2BB-/	-nit	2r	.	2d\	-nit	2b-\	-nit
2BB-/	in	2BB-/	in	2B-\	in	2f\	in	2dd\	in
!	!	!	!	!LO:LB:g=original	!	!	!	!LO:LB:g=original	!
=7	=7	=7	=7	=7	=7	=7	=7	=7	=7
1BB-	no-	1BB-	no-	4B-\	no-	4f\	no-	4dd\	no-
.	.	.	.	4d\	.	4d\	.	4b-\	.
.	.	.	.	2B-\	.	4g\	.	4ee-\	.
.	.	.	.	.	.	4f\	.	4dd\	.
4E-\	-mi-	4E-\	-mi-	4G/	-mi-	4e-\	-mi-	4cc\	-mi-
4En\	-ne	4En\	-ne	4G/	-ne	4d\	-ne	4b-\	-ne
!	!	!LO:PB:g=original	!	!	!	!	!	!	!
=8	=8	=8	=8	=8	=8	=8	=8	=8	=8
4En\	Do-	4En\	Do-	4c\	Do-	4d/	Do-	4b-\	Do-
4F\	-mi-	4F\	-mi-	4c\	-mi-	4c/	-mi-	4a\	-mi-
2F\	-ni	2F\	-ni	2c\	-ni	2c/	-ni	2a\	-ni.
2r	.	2r	.	2r	.	2r	.	2r	.
!LO:LB:g=original	!	!	!	!	!	!	!	!	!
=9	=9	=9	=9	=9	=9	=9	=9	=9	=9
2A\	Be-	2A\	Be-	1c	Be-	1f	Be-	1ee-X	Be-
2F\	.	2F\	.	.	.	.	.	.	.
2B-\	-ne-	2B-\	-ne-	4B-\	-ne-	2f\	-ne-	4dd\	-ne-
.	.	.	.	4c\	.	.	.	4ee-\	.
=10	=10	=10	=10	=10	=10	=10	=10	=10	=10
2F\	-dic-	2F\	-dic-	2B-\	-dic-	1f	-dic-	2dd\	-dic-
2E-\	.	2E-\	.	2A\	.	.	.	2cc\	.
2D\	-tus	2D\	-tus	2B-\	-tus	2f\	-tus	2b-\	-tus
=11	=11	=11	=11	=11	=11	=11	=11	=11	=11
2F\	qui	2F\	qui	1c	qui	1.f	qui	1ee-	qui
2A\	.	2A\	.	.	.	.	.	.	.
2B-\	.	2B-\	.	4B-\	.	.	.	4dd\	.
.	.	.	.	4c\	.	.	.	4ee-\	.
!	!	!	!	!LO:TX:b:rj:t=VS.	!	!	!	!	!
!	!	!	!	!LO:PB:g=original	!	!	!	!	!
=12	=12	=12	=12	=12	=12	=12	=12	=12	=12
2F\	ve-	2F\	ve-	2B-\	ve-	1f	ve-	2dd\	ve-
2E-\	.	2E-\	.	2A\	.	.	.	2cc\	.
4D/	-nit	4D/	-nit	4B-\	-nit	4f\	-nit	4b-\	-nit
4BB-/	in	4BB-/	in	4B-\	in	4f\	in	4dd\	in
!	!	!	!	!	!	!LO:PB:g=original	!	!LO:PB:g=original	!
=13	=13	=13	=13	=13	=13	=13	=13	=13	=13
2.BB-/	no-	2.BB-/	no-	2.B-\	no-	2.f\	no-	2.dd\	no-
4C/	-mi-	4C/	-mi-	4F/	-mi-	4e-\	-mi-	4cc\	-mi-
2D/	-ne	2D/	-ne	2F/	-ne	2d\	-ne	2b-\	-ne
!	!	!LO:LB:g=original	!	!	!	!	!	!	!
=14	=14	=14	=14	=14	=14	=14	=14	=14	=14
2E-\	Do-	2E-\	Do-	2G/	Do-	2e-\	Do-	2cc\	Do-
2F\	.	2F\	.	2F/	.	2d\	.	2b-\	.
2F\	-mi-	2F\	-mi-	2F/	-mi-	2c\	-mi-	2a\	-mi-
=15	=15	=15	=15	=15	=15	=15	=15	=15	=15
1BB-	-ni	1BB-	-ni	1F	-ni	1d	-ni	1b-	-ni
2r	.	2r	.	2r	.	2r	.	2r	.
=16	=16	=16	=16	=16	=16	=16	=16	=16	=16
2A\	Be-	2A\	Be-	1c	Be-	1f	Be-	1ee-	Be-
2F\	.	2F\	.	.	.	.	.	.	.
2B-\	-ne-	2B-\	-ne-	4B-\	-ne-	2f\	-ne-	4dd\	-ne-
.	.	.	.	4c\	.	.	.	4ee-\	.
!LO:LB:g=original	!	!	!	!	!	!	!	!	!
=17	=17	=17	=17	=17	=17	=17	=17	=17	=17
2F\	-dic-	2F\	-dic-	2B-\	-dic-	1f	-dic-	2dd\	-dic-
2E-\	.	2E-\	.	2A\	.	.	.	2cc\	.
2D\	-tus	2D\	-tus	2B-\	-tus	2f\	-tus	2b-\	-tus
!	!	!	!	!LO:LB:g=original	!	!	!	!	!
=18	=18	=18	=18	=18	=18	=18	=18	=18	=18
2F\	qui	2F\	qui	1c	qui	1.f	qui	1ee-	qui
2A\	.	2A\	.	.	.	.	.	.	.
2B-\	.	2B-\	.	4B-\	.	.	.	4dd\	.
.	.	.	.	4c\	.	.	.	4ee-\	.
=19	=19	=19	=19	=19	=19	=19	=19	=19	=19
2F\	ve-	2F\	ve-	2B-\	ve-	1f	ve-	2dd\	ve-
2E-\	.	2E-\	.	2A\	.	.	.	2cc\	.
4D/	-nit	4D/	-nit	4B-\	-nit	4f\	-nit	4b-\	-nit
4BB-/	in	4BB-/	in	4B-\	in	4f\	in	4dd\	in
!	!	!	!	!	!	!LO:LB:g=original	!	!LO:LB:g=original	!
=20	=20	=20	=20	=20	=20	=20	=20	=20	=20
2.BB-/	no-	2.BB-/	no-	2.B-\	no-	2.f\	no-	2.dd\	no-
4C/	-mi-	4C/	-mi-	4F/	-mi-	4e-\	-mi-	4cc\	-mi-
2D/	-ne	2D/	-ne	2F/	-ne	2d\	-ne	2b-\	-ne
!	!	!LO:LB:g=original	!	!	!	!	!	!	!
=21	=21	=21	=21	=21	=21	=21	=21	=21	=21
2E-\	Do-	2E-\	Do-	2G/	Do-	2e-\	Do-	2cc\	Do-
2F\	.	2F\	.	2F/	.	2d\	.	2b-\	.
2F\	-mi-	2F\	-mi-	2F/	-mi-	2c\	-mi-	2a\	-mi-
=22	=22	=22	=22	=22	=22	=22	=22	=22	=22
1BB-	-ni	1BB-	-ni	1F	-ni	1d	-ni	1b-	-ni
!LO:TX:a:t=Osanna da\nCapo	!	!LO:TX:a:t=Osanna da Capo	!	!LO:TX:a:t=Osanna da\nCapo	!	!LO:TX:a:t=Osanna da Capo	!	!LO:TX:a:t=Osanna da Capo	!
2r	.	2r	.	2r	.	2r	.	2r	.
==	==	==;;	==	==;;	==	==;;	==	==;;	==
*-	*-	*-	*-	*-	*-	*-	*-	*-	*-
!!!system-decoration: [(s1,s2,s3,s4)]s5
!!!RDF**kern: > = above
!!!RDF**kern: < = below
!!!ENC: Berenika Jozajtis
!!!EED: Katarzyna Serwa
!!!END: 2024-02-28
!!!EEV: 2024-05-02
